!!!COM:	Bach, Johann Sebastian
!!!CDT:	1685/02/21/-1750/07/28/
!!!OTL@@DE:	Vom Himmel hoch, da komm ich her
!!!SCT:	BWV 248/23
!!!PC#:	344
!!!AGN:	chorale
**kern	**kern	**kern	**kern
*ICvox	*ICvox	*ICvox	*ICvox
*Ibass	*Itenor	*Ialto	*Isoprn
*I"Bass	*I"Tenor	*I"Alto	*I"Soprano
*clefF4	*clefGv2	*clefG2	*clefG2
*k[f#]	*k[f#]	*k[f#]	*k[f#]
*G:	*G:	*G:	*G:
*M4/4	*M4/4	*M4/4	*M4/4
*met(c)	*met(c)	*met(c)	*met(c)
*MM100	*MM100	*MM100	*MM100
4G	4d	4b	4gg
=1	=1	=1	=1
4d	4d	4a	4ff#
8GL	8dL	8bL	4ee
8AJ	8c#J	8aJ	.
4D	8dL	4a	4ff#
.	8cJ	.	.
4G	8cL	4g	4dd
.	8BJ	.	.
=2	=2	=2	=2
4C	8BL	8gL	4ee
.	8AJ	8ccJ	.
4D	4d	8bL	4ff#
.	.	8aJ	.
4GG;	4d;	4b;	4gg;
8GL	4d	4b	4gg
8F#J	.	.	.
=3	=3	=3	=3
4E	4e	4b	4gg
4B	8f#L	4b	4dd
.	8gJ	.	.
4F#	4.d	4a	8ddL
.	.	.	8ccJ
8GL	.	4g	8bL
8EJ	8e	.	8ccJ
=4	=4	=4	=4
8F#L	8AL	8aL	4dd
8G#J	8BJ	8eJ	.
4A	8cL	8eL	4cc
.	16eL	16gnXL	.
.	16d#JJ	16f#JJ	.
4E;	4e;	4g;	4b;
8EL	4e	4g	4b
8DJ	.	.	.
=5	=5	=5	=5
8CL	8eL	4g	4ee
8DJ	8dJ	.	.
8EL	4c	8gL	4ee
8CJ	.	8aJ	.
4GnX	8BL	8bL	8ddL
.	8c#J	8aJ	8eeJ
8F#L	4d	8aL	4ff#
8BJ	.	8bJ	.
=6	=6	=6	=6
8EL	8G	8bL	8ggL
8F#J	4d	8aJ	8ff#J
8GL	.	8bL	4ee
8AJ	8c#	8aJ	.
4D;	4f#;	4a;	4dd;
8EL	4e	4b	4gg
8GJ	.	.	.
=7	=7	=7	=7
8AL	8eL	8ccnXL	4ff#
8BJ	[8dJ	[8bJ	.
8GL	8dL]	8bL]	4ee
8AJ	[8cnXJ	[8aJ	.
8F#L	8cL]	8aL]	4dd
8GJ	8BJ	8gJ	.
8CL	8cL	4g	8eeL
8DJ	8BJ	.	8ddJ
=8	=8	=8	=8
8EL	8cL	4.g	8ccL
8DJ	8dJ	.	8bJ
8CL	8eL	.	4a
8DJ	8dJ	8f#	.
4GG;	4B;	4d;	4g;
==	==	==	==
*-	*-	*-	*-
!!!hum2abc: -Q ''
!!!title: @{PC#}. @{OTL@@DE}
!!!YOR1: 371 vierstimmige Choralges&auml;nge von Johann Sebastian Bach, 
!!!YOR2: 4th ed. by Alfred D&ouml;rffel (Leipzig: Breitkopf und H&auml;rtel, 
!!!YOR2: c.1875). 178 pp. Plate "V.A.10".  reprint: J.S. Bach, 371 Four-Part 
!!!YOR4: Chorales (New York: Associated Music Publishers, Inc., c.1940).
!!!SMS: B&H, 4th ed, Alfred D&ouml;rffel, c.1875, plate V.A.10
!!!EED:  Craig Stuart Sapp
!!!EEV:  2009/05/22
